svg/monochrome/times-circle.svg

<svg xmlns="http://www.w3.org/2000/svg" viewBox="0 0 24 24"><path class="uim-primary" d="M13.41406,12l3.293-3.293A.99989.99989,0,0,0,15.293,7.293L12,10.58594,8.707,7.293A.99989.99989,0,0,0,7.293,8.707L10.58594,12,7.293,15.293A.99989.99989,0,0,0,8.707,16.707L12,13.41406l3.293,3.293A.99989.99989,0,0,0,16.707,15.293Z"/><path class="uim-tertiary" d="M19.0708,4.9292A9.99962,9.99962,0,1,0,4.9292,19.0708,9.99962,9.99962,0,1,0,19.0708,4.9292ZM16.707,15.293A.99989.99989,0,1,1,15.293,16.707L12,13.41406,8.707,16.707A.99989.99989,0,0,1,7.293,15.293L10.58594,12,7.293,8.707A.99989.99989,0,0,1,8.707,7.293L12,10.58594l3.293-3.293A.99989.99989,0,0,1,16.707,8.707L13.41406,12Z"/></svg>

<svg xmlns="http://www.w3.org/2000/svg" viewBox="0 0 24 24"><path class="uim-primary" d="m13.414 12 3.293-3.293a1 1 0 0 0-1.414-1.414L12 10.586 8.707 7.293a1 1 0 0 0-1.414 1.414L10.586 12l-3.293 3.293a1 1 0 0 0 1.414 1.414L12 13.414l3.293 3.293a1 1 0 0 0 1.414-1.414Z"/><path class="uim-tertiary" d="M19.07 4.93A10 10 0 1 0 4.93 19.07 10 10 0 1 0 19.07 4.93Zm-2.363 10.363a1 1 0 1 1-1.414 1.414L12 13.414l-3.293 3.293a1 1 0 0 1-1.414-1.414L10.586 12 7.293 8.707a1 1 0 0 1 1.414-1.414L12 10.586l3.293-3.293a1 1 0 0 1 1.414 1.414L13.414 12Z"/></svg>
